X:219
T: Die schne Anna und der bse Fhnrich (6a), S. 39f
N: T0107
O: Luxemburg
S: Singendes Volk, Esch-Alzette 1937 posth.]
N: BLASCHEID und Umgebung;
N: dieses Lied gesungen von hhh Nikolaus Perl 1902
R: "erzhlendes Lied"]
M: 2/4
L: 1/16
K: F
F2A2 | c2c2c2c2 | B2A2G2F2 | G4G3G | G4
F2A2 | c2c2c2c2 | B2A2G2F2 | G4G3G | G4
f4 | c2B2A2G2 | F4F2F2 | d2d2d2d2 | c2f2e2
d2 | c2B2A2G2 | F4F2F2 | c2c2c2B2 | A4
f4 | c2B2A2G2 | F4F2F2 | d2d2d2d2 | c2f2e2
d2 | c2B2A2G2 | F4F2F2 | c2c2c2B2 | A4

@@@ Tune index: 8273
